icon_installer/data/icons/scalable/actions/show-colorimeter-colorhug-symbolic.svg

<?xml version="1.0" encoding="UTF-8"?>
<svg height="16px" viewBox="0 0 16 16" width="16px" xmlns="http://www.w3.org/2000/svg">
    <path d="m 3.0625 0 c -1.695312 0 -3.0625 1.367188 -3.0625 3.0625 v 6.875 c 0 1.695312 1.367188 3.0625 3.0625 3.0625 h 9.875 c 1.695312 0 3.0625 -1.367188 3.0625 -3.0625 v -6.875 c 0 -1.695312 -1.367188 -3.0625 -3.0625 -3.0625 h -1.9375 c -1.394531 0 -2.515625 1.121094 -2.515625 2.515625 v 1.550781 c -0.855469 0.226563 -1.484375 1.003906 -1.484375 1.933594 v 2 c 0 1.109375 0.890625 2 2 2 h 1 c 1.109375 0 2 -0.890625 2 -2 v -2 c 0 -0.941406 -0.644531 -1.726562 -1.515625 -1.941406 v -1.542969 c 0 -0.28125 0.234375 -0.515625 0.515625 -0.515625 h 1.9375 c 0.589844 0 1.0625 0.472656 1.0625 1.0625 v 6.875 c 0 0.589844 -0.472656 1.0625 -1.0625 1.0625 h -9.875 c -0.589844 0 -1.0625 -0.472656 -1.0625 -1.0625 v -6.875 c 0 -0.589844 0.472656 -1.0625 1.0625 -1.0625 h 2.9375 c 0.550781 0 1 -0.449219 1 -1 s -0.449219 -1 -1 -1 z m 1.9375 14 c -1.105469 0 -2 0.894531 -2 2 h 10 c 0 -1.105469 -0.894531 -2 -2 -2 z m 0 0" fill="#2e3436"/>
</svg>

<svg xmlns="http://www.w3.org/2000/svg" width="16" height="16"><path fill="#2e3436" d="M3.063 0A3.057 3.057 0 0 0 0 3.063v6.874A3.057 3.057 0 0 0 3.063 13h9.874A3.057 3.057 0 0 0 16 9.937V3.064A3.057 3.057 0 0 0 12.937 0H11a2.509 2.509 0 0 0-2.516 2.516v1.55A1.997 1.997 0 0 0 7 6v2c0 1.11.89 2 2 2h1c1.11 0 2-.89 2-2V6c0-.941-.645-1.727-1.516-1.941V2.516A.52.52 0 0 1 11 2h1.938A1.06 1.06 0 0 1 14 3.063v6.874A1.06 1.06 0 0 1 12.937 11H3.063A1.06 1.06 0 0 1 2 9.937V3.064A1.06 1.06 0 0 1 3.063 2H6c.55 0 1-.45 1-1s-.45-1-1-1zM5 14a2 2 0 0 0-2 2h10a2 2 0 0 0-2-2zm0 0"/></svg>
